Newaita-dark/mimetypes/64/application-x-cb7.svg

<svg height="64" viewBox="0 0 64 64" width="64" xmlns="http://www.w3.org/2000/svg" xmlns:xlink="http://www.w3.org/1999/xlink"><linearGradient id="a" gradientUnits="userSpaceOnUse" x1="31.75304" x2="31.75304" y1="56.067872" y2="58.71396000006"><stop offset="0" stop-opacity=".27451"/><stop offset="1" stop-opacity="0"/></linearGradient><linearGradient id="b"><stop offset="0" stop-opacity=".313726"/><stop offset=".222222" stop-opacity=".27451"/><stop offset="1" stop-opacity="0"/></linearGradient><radialGradient id="c" cx="450.908936" cy="189.579361" gradientTransform="matrix(.00000035 -.156265 -.281277 -.0000002 100.292171 127.190665)" gradientUnits="userSpaceOnUse" r="21.166656" xlink:href="#b"/><radialGradient id="d" cx="450.908936" cy="189.579361" gradientTransform="matrix(-.00000035 .156265 .281277 .0000002 -36.786098 -15.054961)" gradientUnits="userSpaceOnUse" r="21.166656" xlink:href="#b"/><radialGradient id="e" cx="450.908936" cy="189.579361" gradientTransform="matrix(-.00000035 -.156265 .281277 -.0000002 -36.786098 127.190665)" gradientUnits="userSpaceOnUse" r="21.166656" xlink:href="#b"/><radialGradient id="f" cx="450.908936" cy="189.579361" gradientTransform="matrix(.00000035 .156265 -.281277 .0000002 100.292167 -15.054959)" gradientUnits="userSpaceOnUse" r="21.166656" xlink:href="#b"/><linearGradient id="g" gradientTransform="matrix(.150699 0 0 .434824 -11.708026 67.282696)" gradientUnits="userSpaceOnUse" x1="306.916656" x2="305.954559" y1="-25.791676" y2="-141.414581"><stop offset="0" stop-color="#c5e1a5"/><stop offset="1" stop-color="#dcedc8"/></linearGradient><linearGradient id="h"><stop offset="0" stop-color="#9ccc65"/><stop offset="1" stop-color="#aed581"/></linearGradient><linearGradient id="i" gradientTransform="matrix(4.556143 0 0 13.146184 -353.972656 2034.180176)" gradientUnits="userSpaceOnUse" x1="165.484848" x2="165.484848" xlink:href="#h" y1="-25.791672" y2="-141.414581"/><linearGradient id="j" gradientUnits="userSpaceOnUse" x1="31.753048" x2="31.753048" xlink:href="#h" y1="56.067868" y2="5.79220799994"/><path d="m15.875 56.066406h31.753906v2.648438h-31.753906zm0 0" fill="url(#a)"/><path d="m47.628906 56.066406h5.292969v-2.644531h-5.292969zm0 0" fill="url(#c)"/><path d="m15.875 56.066406h-5.289062v2.648438h5.289062zm0 0" fill="url(#d)"/><path d="m15.875 56.066406h-5.289062v-2.644531h5.289062zm0 0" fill="url(#e)"/><path d="m47.628906 56.066406h5.292969v2.648438h-5.292969zm0 0" fill="url(#f)"/><path d="m13.230469 5.792969h37.046875c1.460937 0 2.644531 1.183593 2.644531 2.644531v44.984375c0 1.460937-1.183594 2.644531-2.644531 2.644531h-37.046875c-1.460938 0-2.644531-1.183594-2.644531-2.644531v-44.984375c0-1.460938 1.183593-2.644531 2.644531-2.644531zm0 0" fill="url(#g)"/><path d="m400.001193 175.140764c-44.287112 0-79.952999 35.665888-79.952999 79.952999v1360.027676c0 44.287112 35.665887 79.952999 79.952999 79.952999h119.988548v-1519.933674zm0 0" fill="url(#i)" stroke="#212121" stroke-linecap="round" stroke-width="11.338583" transform="scale(.0330761)"/><path d="m13.230469 55.917969c-1.464844 0-2.644531-1.179688-2.644531-2.644531v-.332032c0 1.464844 1.179687 2.644532 2.644531 2.644532h37.046875c1.464844 0 2.644531-1.179688 2.644531-2.644532v.332032c0 1.464843-1.179687 2.644531-2.644531 2.644531zm0 0" fill-opacity=".196078"/><path d="m13.230469 5.941406c-1.464844 0-2.644531 1.179688-2.644531 2.644532v.332031c0-1.464844 1.179687-2.648438 2.644531-2.644531h37.046875c1.464844-.003907 2.644531 1.179687 2.644531 2.644531v-.332031c0-1.464844-1.179687-2.644532-2.644531-2.644532zm0 0" fill="#fff" fill-opacity=".392157"/><path d="m13.230469 5.605469c-1.566407 0-2.832031 1.265625-2.832031 2.832031v44.984375c0 1.566406 1.265624 2.832031 2.832031 2.832031h37.046875c1.566406 0 2.832031-1.265625 2.832031-2.832031v-44.984375c0-1.566406-1.265625-2.832031-2.832031-2.832031zm0 .375h37.046875c1.363281 0 2.457031 1.09375 2.457031 2.457031v44.984375c0 1.367187-1.09375 2.457031-2.457031 2.457031h-37.046875c-1.367188 0-2.457031-1.089844-2.457031-2.457031v-44.984375c0-1.363281 1.089843-2.457031 2.457031-2.457031zm0 0" fill="#212121"/><path d="m24.476562 19.023438c-1.101562 0-1.984374.882812-1.984374 1.984374v14.554688c0 1.097656.882812 1.984375 1.984374 1.984375h14.675782l4.898437 4.898437c.832031.828126 2.25.242188 2.25-.929687v-4.082031c.773438-.269532 1.328125-1.003906 1.328125-1.871094v-14.554688c0-1.101562-.882812-1.984374-1.984375-1.984374zm0 0" fill="url(#j)"/><path d="m24.476562 19.023438c-1.101562 0-1.984374.882812-1.984374 1.984374v.660157c0-1.097657.882812-1.984375 1.984374-1.984375h21.167969c1.101563 0 1.984375.886718 1.984375 1.984375v-.660157c0-1.101562-.882812-1.984374-1.984375-1.984374zm0 0" fill-opacity=".235294"/><path d="m22.492188 35.671875v.550781c0 1.097656.882812 1.984375 1.984374 1.984375h14.675782l4.898437 4.898438c.832031.832031 2.25.242187 2.25-.929688v-.550781c0 1.171875-1.417969 1.761719-2.25.929688l-4.898437-4.898438h-14.675782c-1.101562 0-1.984374-.886719-1.984374-1.984375zm25.136718 0c0 .867187-.554687 1.605469-1.328125 1.875v.550781c.773438-.269531 1.328125-1.007812 1.328125-1.875zm0 0" fill="#fff" fill-opacity=".392157"/><path d="m195.793803-62.827032c-8.811659 0-15.873485 7.061826-15.873485 15.873484v116.426382c0 8.780412 7.061826 15.873484 15.873485 15.873484h117.395039l39.183758 39.183758c6.655615 6.624368 17.998281 1.937315 17.998281-7.436789v-32.653132c6.18691-2.156044 10.623986-8.030483 10.623986-14.967321v-116.426382c0-8.811658-7.061826-15.873484-15.873484-15.873484zm0 0" fill="none" stroke="#212121" stroke-linecap="round" stroke-linejoin="round" stroke-width="3" transform="matrix(.125012 0 0 .125012 0 26.877566)"/></svg>

<svg xmlns="http://www.w3.org/2000/svg" xmlns:xlink="http://www.w3.org/1999/xlink" width="64px" height="64px" viewBox="0 0 64 64" version="1.1">
<defs>
<linearGradient id="linear0" gradientUnits="userSpaceOnUse" x1="31.75304" y1="56.067871" x2="31.75304" y2="58.713959" >
<stop offset="0" style="stop-color:rgb(0%,0%,0%);stop-opacity:0.27451;"/>
<stop offset="1" style="stop-color:rgb(0%,0%,0%);stop-opacity:0;"/>
</linearGradient>
<radialGradient id="radial0" gradientUnits="userSpaceOnUse" cx="450.908936" cy="189.579361" fx="450.908936" fy="189.579361" r="21.166656" gradientTransform="matrix(0.00000035,-0.156265,-0.281277,-0.0000002,100.292168,127.190666)">
<stop offset="0" style="stop-color:rgb(0%,0%,0%);stop-opacity:0.313726;"/>
<stop offset="0.222222" style="stop-color:rgb(0%,0%,0%);stop-opacity:0.27451;"/>
<stop offset="1" style="stop-color:rgb(0%,0%,0%);stop-opacity:0;"/>
</radialGradient>
<radialGradient id="radial1" gradientUnits="userSpaceOnUse" cx="450.908936" cy="189.579361" fx="450.908936" fy="189.579361" r="21.166656" gradientTransform="matrix(-0.00000035,0.156265,0.281277,0.0000002,-36.786098,-15.054961)">
<stop offset="0" style="stop-color:rgb(0%,0%,0%);stop-opacity:0.313726;"/>
<stop offset="0.222222" style="stop-color:rgb(0%,0%,0%);stop-opacity:0.27451;"/>
<stop offset="1" style="stop-color:rgb(0%,0%,0%);stop-opacity:0;"/>
</radialGradient>
<radialGradient id="radial2" gradientUnits="userSpaceOnUse" cx="450.908936" cy="189.579361" fx="450.908936" fy="189.579361" r="21.166656" gradientTransform="matrix(-0.00000035,-0.156265,0.281277,-0.0000002,-36.786098,127.190666)">
<stop offset="0" style="stop-color:rgb(0%,0%,0%);stop-opacity:0.313726;"/>
<stop offset="0.222222" style="stop-color:rgb(0%,0%,0%);stop-opacity:0.27451;"/>
<stop offset="1" style="stop-color:rgb(0%,0%,0%);stop-opacity:0;"/>
</radialGradient>
<radialGradient id="radial3" gradientUnits="userSpaceOnUse" cx="450.908936" cy="189.579361" fx="450.908936" fy="189.579361" r="21.166656" gradientTransform="matrix(0.00000035,0.156265,-0.281277,0.0000002,100.292168,-15.054959)">
<stop offset="0" style="stop-color:rgb(0%,0%,0%);stop-opacity:0.313726;"/>
<stop offset="0.222222" style="stop-color:rgb(0%,0%,0%);stop-opacity:0.27451;"/>
<stop offset="1" style="stop-color:rgb(0%,0%,0%);stop-opacity:0;"/>
</radialGradient>
<linearGradient id="linear1" gradientUnits="userSpaceOnUse" x1="306.916656" y1="-25.791676" x2="305.954559" y2="-141.414581" gradientTransform="matrix(0.150699,0,0,0.434824,-11.708026,67.2827)">
<stop offset="0" style="stop-color:rgb(77.254903%,88.235295%,64.705884%);stop-opacity:1;"/>
<stop offset="1" style="stop-color:rgb(86.274511%,92.941177%,78.431374%);stop-opacity:1;"/>
</linearGradient>
<linearGradient id="linear2" gradientUnits="userSpaceOnUse" x1="165.484848" y1="-25.791672" x2="165.484848" y2="-141.414581" gradientTransform="matrix(4.556143,0,0,13.146184,-353.972656,2034.180176)">
<stop offset="0" style="stop-color:rgb(61.176473%,80.000001%,39.607844%);stop-opacity:1;"/>
<stop offset="1" style="stop-color:rgb(68.235296%,83.529413%,50.588238%);stop-opacity:1;"/>
</linearGradient>
<linearGradient id="linear3" gradientUnits="userSpaceOnUse" x1="31.753048" y1="56.067867" x2="31.753048" y2="5.792208" >
<stop offset="0" style="stop-color:rgb(61.176473%,80.000001%,39.607844%);stop-opacity:1;"/>
<stop offset="1" style="stop-color:rgb(68.235296%,83.529413%,50.588238%);stop-opacity:1;"/>
</linearGradient>
</defs>
<g id="surface1">
<path style=" stroke:none;fill-rule:nonzero;fill:url(#linear0);" d="M 15.875 56.066406 L 47.628906 56.066406 L 47.628906 58.714844 L 15.875 58.714844 Z M 15.875 56.066406 "/>
<path style=" stroke:none;fill-rule:nonzero;fill:url(#radial0);" d="M 47.628906 56.066406 L 52.921875 56.066406 L 52.921875 53.421875 L 47.628906 53.421875 Z M 47.628906 56.066406 "/>
<path style=" stroke:none;fill-rule:nonzero;fill:url(#radial1);" d="M 15.875 56.066406 L 10.585938 56.066406 L 10.585938 58.714844 L 15.875 58.714844 Z M 15.875 56.066406 "/>
<path style=" stroke:none;fill-rule:nonzero;fill:url(#radial2);" d="M 15.875 56.066406 L 10.585938 56.066406 L 10.585938 53.421875 L 15.875 53.421875 Z M 15.875 56.066406 "/>
<path style=" stroke:none;fill-rule:nonzero;fill:url(#radial3);" d="M 47.628906 56.066406 L 52.921875 56.066406 L 52.921875 58.714844 L 47.628906 58.714844 Z M 47.628906 56.066406 "/>
<path style=" stroke:none;fill-rule:nonzero;fill:url(#linear1);" d="M 13.230469 5.792969 L 50.277344 5.792969 C 51.738281 5.792969 52.921875 6.976562 52.921875 8.4375 L 52.921875 53.421875 C 52.921875 54.882812 51.738281 56.066406 50.277344 56.066406 L 13.230469 56.066406 C 11.769531 56.066406 10.585938 54.882812 10.585938 53.421875 L 10.585938 8.4375 C 10.585938 6.976562 11.769531 5.792969 13.230469 5.792969 Z M 13.230469 5.792969 "/>
<path style="fill-rule:nonzero;fill:url(#linear2);stroke-width:11.338583;stroke-linecap:round;stroke-linejoin:miter;stroke:rgb(12.941177%,12.941177%,12.941177%);stroke-opacity:1;stroke-miterlimit:4;" d="M 400.000869 175.140622 C 355.713793 175.140622 320.047934 210.806481 320.047934 255.093557 L 320.047934 1615.12013 C 320.047934 1659.407205 355.713793 1695.073064 400.000869 1695.073064 L 519.989319 1695.073064 L 519.989319 175.140622 Z M 400.000869 175.140622 " transform="matrix(0.0330761,0,0,0.0330761,0,0)"/>
<path style=" stroke:none;fill-rule:nonzero;fill:rgb(0%,0%,0%);fill-opacity:0.196078;" d="M 13.230469 55.917969 C 11.765625 55.917969 10.585938 54.738281 10.585938 53.273438 L 10.585938 52.941406 C 10.585938 54.40625 11.765625 55.585938 13.230469 55.585938 L 50.277344 55.585938 C 51.742188 55.585938 52.921875 54.40625 52.921875 52.941406 L 52.921875 53.273438 C 52.921875 54.738281 51.742188 55.917969 50.277344 55.917969 Z M 13.230469 55.917969 "/>
<path style=" stroke:none;fill-rule:nonzero;fill:rgb(100%,100%,100%);fill-opacity:0.392157;" d="M 13.230469 5.941406 C 11.765625 5.941406 10.585938 7.121094 10.585938 8.585938 L 10.585938 8.917969 C 10.585938 7.453125 11.765625 6.269531 13.230469 6.273438 L 50.277344 6.273438 C 51.742188 6.269531 52.921875 7.453125 52.921875 8.917969 L 52.921875 8.585938 C 52.921875 7.121094 51.742188 5.941406 50.277344 5.941406 Z M 13.230469 5.941406 "/>
<path style=" stroke:none;fill-rule:nonzero;fill:rgb(12.941177%,12.941177%,12.941177%);fill-opacity:1;" d="M 13.230469 5.605469 C 11.664062 5.605469 10.398438 6.871094 10.398438 8.4375 L 10.398438 53.421875 C 10.398438 54.988281 11.664062 56.253906 13.230469 56.253906 L 50.277344 56.253906 C 51.84375 56.253906 53.109375 54.988281 53.109375 53.421875 L 53.109375 8.4375 C 53.109375 6.871094 51.84375 5.605469 50.277344 5.605469 Z M 13.230469 5.980469 L 50.277344 5.980469 C 51.640625 5.980469 52.734375 7.074219 52.734375 8.4375 L 52.734375 53.421875 C 52.734375 54.789062 51.640625 55.878906 50.277344 55.878906 L 13.230469 55.878906 C 11.863281 55.878906 10.773438 54.789062 10.773438 53.421875 L 10.773438 8.4375 C 10.773438 7.074219 11.863281 5.980469 13.230469 5.980469 Z M 13.230469 5.980469 "/>
<path style=" stroke:none;fill-rule:nonzero;fill:url(#linear3);" d="M 24.476562 19.023438 C 23.375 19.023438 22.492188 19.90625 22.492188 21.007812 L 22.492188 35.5625 C 22.492188 36.660156 23.375 37.546875 24.476562 37.546875 L 39.152344 37.546875 L 44.050781 42.445312 C 44.882812 43.273438 46.300781 42.6875 46.300781 41.515625 L 46.300781 37.433594 C 47.074219 37.164062 47.628906 36.429688 47.628906 35.5625 L 47.628906 21.007812 C 47.628906 19.90625 46.746094 19.023438 45.644531 19.023438 Z M 24.476562 19.023438 "/>
<path style=" stroke:none;fill-rule:nonzero;fill:rgb(0%,0%,0%);fill-opacity:0.235294;" d="M 24.476562 19.023438 C 23.375 19.023438 22.492188 19.90625 22.492188 21.007812 L 22.492188 21.667969 C 22.492188 20.570312 23.375 19.683594 24.476562 19.683594 L 45.644531 19.683594 C 46.746094 19.683594 47.628906 20.570312 47.628906 21.667969 L 47.628906 21.007812 C 47.628906 19.90625 46.746094 19.023438 45.644531 19.023438 Z M 24.476562 19.023438 "/>
<path style=" stroke:none;fill-rule:nonzero;fill:rgb(100%,100%,100%);fill-opacity:0.392157;" d="M 22.492188 35.671875 L 22.492188 36.222656 C 22.492188 37.320312 23.375 38.207031 24.476562 38.207031 L 39.152344 38.207031 L 44.050781 43.105469 C 44.882812 43.9375 46.300781 43.347656 46.300781 42.175781 L 46.300781 41.625 C 46.300781 42.796875 44.882812 43.386719 44.050781 42.554688 L 39.152344 37.65625 L 24.476562 37.65625 C 23.375 37.65625 22.492188 36.769531 22.492188 35.671875 Z M 47.628906 35.671875 C 47.628906 36.539062 47.074219 37.277344 46.300781 37.546875 L 46.300781 38.097656 C 47.074219 37.828125 47.628906 37.089844 47.628906 36.222656 Z M 47.628906 35.671875 "/>
<path style="fill:none;stroke-width:3;stroke-linecap:round;stroke-linejoin:round;stroke:rgb(12.941177%,12.941177%,12.941177%);stroke-opacity:1;stroke-miterlimit:4;" d="M 195.793711 -62.826994 C 186.982057 -62.826994 179.920234 -55.765172 179.920234 -46.953517 L 179.920234 69.47281 C 179.920234 78.253217 186.982057 85.346287 195.793711 85.346287 L 313.188695 85.346287 L 352.372435 124.530027 C 359.028046 131.154391 370.370708 126.467341 370.370708 117.09324 L 370.370708 84.440124 C 376.557614 82.284081 380.994688 76.409644 380.994688 69.47281 L 380.994688 -46.953517 C 380.994688 -55.765172 373.932866 -62.826994 365.121212 -62.826994 Z M 195.793711 -62.826994 " transform="matrix(0.125012,0,0,0.125012,0,26.877565)"/>
</g>
</svg>
